assets/icons/Logo-EN.svg

<svg width="152" height="62" viewBox="0 0 152 62" fill="none" xmlns="http://www.w3.org/2000/svg">
  <path
    d="M56.4 2.6C47.6 7.2 44.2 11.8 47.2 14.8C49.9 17.5 53.9 15 58.3 7.7C60.1 4.9 62.2 0 61.6 0C61.4 0 59.1 1.2 56.4 2.6ZM55.3 9.6C55 10.4 54.1 11 53.4 11C51.4 11 50.4 8 52.1 7C53.8 5.9 56.1 7.7 55.3 9.6ZM42 10.5C39.5 13.2 40.8 14 43.4 11.4C44.8 10 45.6 8 44.7 8C44.5 8 43.3 9.1 42 10.5ZM19 11.9C12.1 14 5.9 19.3 2.4 26C-0.399999 31.3 -0.0999994 42.2 2.9 47.9L5.2 52.3L7.2 50.2C9.2 48.2 9.2 48 7.6 44.1C3.5 33.8 8.1 22.8 18.2 18.5C22.5 16.8 28 16.5 28 18C28 18.6 26.1 21.7 23.8 24.8C21.6 27.9 19.2 31.2 18.7 32C18.1 32.8 22 29.2 27.3 24C32.6 18.8 37 14.2 37 13.9C37 12.9 28.6 11 24.8 11.1C23 11.1 20.4 11.5 19 11.9ZM50.6 18.6C48 21.2 48.8 22.5 51.5 20C52.9 18.7 54 17.5 54 17.3C54 16.4 52 17.2 50.6 18.6ZM45.7 26.8C44.4 28.2 44.2 29.8 44.6 33.7C46.1 45.7 37.2 55.9 25.5 56C17.6 56 17.8 54.8 26.5 45.8C30.9 41.3 33.8 38.1 33 38.7C27.2 42.8 11 55.2 10.5 56C10.2 56.5 11.9 57.9 14.2 59.2C20.1 62.3 30.8 62.3 36.5 59.3C47.5 53.4 53.2 40.9 50 29.5C48.6 24.5 48.1 24.2 45.7 26.8Z"
    fill="white" />
  <path
    d="M32.5 26.7C18.7 41.8 13.3 47.8 10.1 51.5L7.5 54.5L10.5 51.9C15.6 47.6 35.2 29.8 41.4 23.8C46.6 18.9 47.2 18 46.1 16.6C45.3 15.7 44.4 15 44 15C43.6 15 38.4 20.3 32.5 26.7Z"
    fill="#FFCB06" />
  <path
    d="M81.8 38.64V23.8H90.44V21.44H79.36V41H90.72V38.64H81.8ZM89.72 32.08V29.8H83.04V32.08H89.72ZM102.836 31.28V33.6H110.636C110.276 35.24 109.436 36.52 108.156 37.44C106.876 38.44 105.316 38.92 103.556 38.92C101.316 38.92 99.5563 38.2 98.1963 36.76C96.8363 35.36 96.1563 33.52 96.1563 31.24V31.08C95.1163 31.52 94.3163 32.04 93.7163 32.68C93.8763 34.04 94.2763 35.28 94.9163 36.4C95.7163 37.92 96.9163 39.12 98.4363 40C99.9563 40.88 101.636 41.32 103.556 41.32C104.916 41.32 106.196 41.08 107.436 40.56C108.636 40.08 109.676 39.4 110.516 38.52C111.356 37.64 112.036 36.56 112.516 35.32C112.996 34.12 113.236 32.8 113.316 31.28H102.836ZM98.1963 25.68C99.5963 24.28 101.396 23.56 103.556 23.56C105.236 23.56 106.676 24 107.916 24.84C109.196 25.72 110.076 26.88 110.476 28.24H112.996C112.596 26.24 111.476 24.52 109.716 23.12C107.916 21.84 105.836 21.16 103.476 21.16C101.596 21.16 99.9163 21.6 98.4363 22.44C96.9163 23.36 95.7163 24.56 94.9163 26.04C94.0363 27.56 93.6363 29.32 93.6363 31.24V31.4C94.5963 30.76 95.4363 30.28 96.2363 29.88C96.4763 28.24 97.1163 26.84 98.1963 25.68ZM119.453 30.96C120.093 31.28 121.013 31.56 122.133 31.8L123.693 29.76C123.573 29.76 123.413 29.72 123.213 29.68C123.013 29.64 122.893 29.6 122.813 29.56C122.773 29.56 122.453 29.44 121.853 29.28C121.493 29.2 121.213 29.08 120.973 28.96C120.533 28.72 120.293 28.6 120.253 28.52C119.933 28.36 119.733 28.2 119.653 28C119.493 27.84 119.373 27.64 119.293 27.36C119.173 27.12 119.133 26.84 119.133 26.52C119.133 25.64 119.493 24.92 120.293 24.36C121.053 23.84 122.053 23.56 123.293 23.56C124.493 23.56 125.493 23.88 126.293 24.48C127.053 25.12 127.453 25.96 127.453 27H129.853C129.853 25.24 129.253 23.8 128.133 22.76C126.933 21.72 125.333 21.2 123.333 21.2C121.293 21.2 119.693 21.72 118.493 22.68C117.293 23.64 116.693 24.96 116.693 26.64C116.693 26.96 116.693 27.24 116.773 27.56C117.013 29.08 117.893 30.2 119.453 30.96ZM130.333 34.28C130.013 32.8 129.053 31.68 127.453 30.92C126.973 30.72 126.333 30.48 125.453 30.24L123.893 32.24C123.893 32.28 124.013 32.32 124.173 32.36C124.333 32.4 124.493 32.44 124.653 32.44C125.053 32.56 125.293 32.64 125.453 32.68L126.093 32.96C126.413 33.12 126.613 33.2 126.733 33.28C126.813 33.36 126.933 33.52 127.173 33.68C127.333 33.84 127.453 34 127.573 34.16C127.653 34.44 127.733 34.64 127.773 34.76C127.853 35 127.893 35.2 127.893 35.44C127.893 36.48 127.453 37.28 126.613 37.92C125.813 38.56 124.773 38.84 123.533 38.84C122.133 38.84 121.013 38.48 120.133 37.76C119.253 37.08 118.813 36.16 118.813 34.96H116.333C116.333 36.88 116.973 38.4 118.293 39.52C119.613 40.64 121.373 41.2 123.533 41.2C124.853 41.2 126.013 41 127.053 40.56C128.053 40.12 128.853 39.44 129.493 38.56C130.093 37.68 130.413 36.64 130.413 35.44C130.413 35.04 130.373 34.64 130.333 34.28ZM142.919 21.52L142.839 27.4L145.599 34.08H137.999L141.759 24.84V21.44H140.559L132.599 41H135.199L137.119 36.32H146.479L148.439 41H151.079L142.919 21.52Z"
    fill="white" />
</svg>

<svg width="160" height="62" fill="none" xmlns="http://www.w3.org/2000/svg">
  <path
    d="M56.4 2.6c-8.8 4.6-12.2 9.2-9.2 12.2 2.7 2.7 6.7.2 11.1-7.1C60.1 4.9 62.2 0 61.6 0c-.2 0-2.5 1.2-5.2 2.6zm-1.1 7c-.3.8-1.2 1.4-1.9 1.4-2 0-3-3-1.3-4 1.7-1.1 4 .7 3.2 2.6zm-13.3.9c-2.5 2.7-1.2 3.5 1.4.9C44.8 10 45.6 8 44.7 8c-.2 0-1.4 1.1-2.7 2.5zm-23 1.4C12.1 14 5.9 19.3 2.4 26c-2.8 5.3-2.5 16.2.5 21.9l2.3 4.4 2-2.1c2-2 2-2.2.4-6.1-4.1-10.3.5-21.3 10.6-25.6 4.3-1.7 9.8-2 9.8-.5 0 .6-1.9 3.7-4.2 6.8-2.2 3.1-4.6 6.4-5.1 7.2-.6.8 3.3-2.8 8.6-8S37 14.2 37 13.9c0-1-8.4-2.9-12.2-2.8-1.8 0-4.4.4-5.8.8zm31.6 6.7c-2.6 2.6-1.8 3.9.9 1.4 1.4-1.3 2.5-2.5 2.5-2.7 0-.9-2-.1-3.4 1.3zm-4.9 8.2c-1.3 1.4-1.5 3-1.1 6.9 1.5 12-7.4 22.2-19.1 22.3-7.9 0-7.7-1.2 1-10.2 4.4-4.5 7.3-7.7 6.5-7.1-5.8 4.1-22 16.5-22.5 17.3-.3.5 1.4 1.9 3.7 3.2 5.9 3.1 16.6 3.1 22.3.1 11-5.9 16.7-18.4 13.5-29.8-1.4-5-1.9-5.3-4.3-2.7z"
    fill="#fff" />
  <path
    d="M32.5 26.7C18.7 41.8 13.3 47.8 10.1 51.5l-2.6 3 3-2.6c5.1-4.3 24.7-22.1 30.9-28.1 5.2-4.9 5.8-5.8 4.7-7.2-.8-.9-1.7-1.6-2.1-1.6-.4 0-5.6 5.3-11.5 11.7z"
    fill="#FFCB06" />
  <path
    d="M81.8 38.64V23.8h8.6v-2.32H79.36V41h11.36v-2.36H81.8zm7.88-6.56v-2.24H83v2.24h6.68zm13.156-.8v2.36h7.8c-.36 1.56-1.2 2.88-2.48 3.84s-2.84 1.44-4.6 1.44c-2.24 0-4-.72-5.4-2.16-1.36-1.4-2.04-3.28-2.04-5.52v-.12c-.76.32-1.68.84-2.44 1.56.2 1.36.6 2.6 1.2 3.72.84 1.56 2.04 2.76 3.56 3.64 1.52.84 3.2 1.28 5.12 1.28 1.36 0 2.64-.24 3.88-.72 1.16-.52 2.2-1.2 3.04-2.08.84-.88 1.52-1.92 2.04-3.2.48-1.2.76-2.56.8-4.04h-10.48zm-4.64-5.56c1.4-1.44 3.2-2.16 5.36-2.16 1.64 0 3.08.44 4.36 1.32 1.28.84 2.12 2 2.56 3.4h2.52c-.44-2.08-1.56-3.76-3.32-5.12-1.8-1.32-3.84-1.96-6.2-1.96-1.88 0-3.56.4-5.08 1.24-1.48.92-2.68 2.08-3.52 3.64-.84 1.52-1.24 3.24-1.24 5.16v.16c.72-.48 1.64-1.08 2.6-1.52.2-1.64.88-3.04 1.96-4.16zm21.257 5.24c.56.28 1.48.56 2.64.88l1.6-2.04c-.36-.12-.68-.16-.88-.24-.28-.04-.56-.16-.96-.28-.4-.12-.72-.2-.92-.32-.2-.12-.44-.24-.72-.4-.24-.16-.48-.32-.6-.52s-.24-.44-.36-.68a2.58 2.58 0 01-.12-.8c0-.92.4-1.64 1.16-2.16.8-.56 1.76-.84 2.96-.84 1.24 0 2.24.32 3 .92.76.64 1.16 1.48 1.16 2.52h2.44c0-1.76-.6-3.16-1.76-4.2-1.16-1.08-2.76-1.56-4.76-1.56-2.04 0-3.64.48-4.84 1.44-1.24.96-1.8 2.28-1.8 4 0 .28 0 .6.08.88.2 1.52 1.12 2.64 2.68 3.4zm10.84 3.36c-.28-1.48-1.24-2.64-2.84-3.36-.48-.24-1.16-.44-2.04-.72l-1.56 2.04c.16.04.44.12.8.2.32.08.6.16.76.24.16.04.4.16.68.28.28.12.48.2.6.32.16.12.32.24.48.4.2.16.28.32.4.48.04.16.16.36.2.56.08.24.08.48.08.72 0 1-.4 1.84-1.24 2.44-.8.64-1.88.92-3.12.92-1.4 0-2.52-.36-3.4-1.04-.84-.68-1.28-1.64-1.28-2.8h-2.48c0 1.88.64 3.4 1.96 4.56 1.32 1.12 3.08 1.68 5.24 1.68 1.28 0 2.44-.2 3.48-.68a5.725 5.725 0 002.48-1.96c.6-.88.92-1.92.92-3.16 0-.4-.04-.76-.12-1.12zm12.586-12.76l-.08 5.88 2.76 6.64h-7.56l3.72-9.24v-3.36h-1.16L132.599 41h2.6l1.88-4.68h9.4l1.92 4.68h2.64l-8.16-19.44z"
    fill="#fff" />
</svg>
